X:1
T:Title
%%score { 1 | ( 2 3 ) }
L:1/8
Q:1/4=110
M:4/4
K:Bb
V:1 treble nm="Grand Piano"
V:2 bass 
V:3 bass 
V:1
 [B,DF]2 [B,DF]2 [DFB]2 [B,DF]2 | [B,EG]2 [B,EG]2 [EG]2 [DF]2 | [Fd]2 [Fc]2 [FB]2 c2 | %3
w: J.~T.~Hall * * *|||
 B2 A2 [DB]4 | [DF]2 [DF]2 [DFB]2 [B,DF]2 | [B,EG]2 [B,EG]2 [EG]2 [DF]2 | [Fd]2 [Fc]2 [FB]2 c2 | %7
w: ||||
 B2 A2 [DB]4 | c2 c2 d2 c2 | [=Ec]2 [GB]2 [GB]A A2 | A2 AB [CFc]2 [DFB]2 | [CFA]2 [A,=EG]2 [A,F]4 | %12
w: |||||
 [B,DF]2 [B,DF]2 [DFB]2 [B,DF]2 | [B,EG]2 [B,EG]2 [EG]2 [DF]2 | [Fd]2 [Fc]2 [FB]2 c2 | %15
w: |||
[M:8/4] B2 A2 [DB]4 z8 |] %16
w: |
V:2
 B,,2 B,,2 B,,2 B,,2 | E,2 E,2 [B,,B,]2 [B,,B,]2 | [B,,B,]2 [C,A,]2 [D,B,]2 [E,G,E]2 | %3
 [F,D]2 [F,C]2 [B,,F,]4 | [B,,B,]2 [B,,B,]2 B,,2 B,,2 | E,2 E,2 [B,,B,]2 [B,,B,]2 | %6
 [B,,B,]2 [C,A,]2 [D,B,]2 [E,G,E]2 | [F,D]2 [F,C]2 [B,,F,]4 | [F,A,F]2 [F,A,F]2 [F,B,F]2 [F,A,F]2 | %9
 [C,G,]2 [=E,C]2 z[K:treble] F [F,CF]2 | [F,CF]2 [F,CF]2 A,,2 B,,2 | z4 F,4 | B,,2 B,,2 B,,2 B,,2 | %13
 E,2 E,2 [B,,B,]2 [B,,B,]2 | [B,,B,]2 [C,A,]2 [D,B,]2 [E,G,E]2 | %15
[M:8/4] [F,D]2 [F,C]2 [B,,F,]4 z8 |] %16
V:3
 x8 | x8 | x8 | x8 | x8 | x8 | x8 | x8 | x8 | z4 [F,C]2[K:treble] z2 | x8 | C,2 C,2 z E,D,C, | x8 | %13
 x8 | x8 |[M:8/4] x16 |] %16

